!!!OTL: Kranzsingen.
!!!ARE: Europa, Mitteleuropa, Deutschland
!!!SCT: A0281
!!!TXL: @@DE
!!!YEM: Copyright 1995, estate of Helmut Schaffrath.
**kern	**text
*M4/1	*
*met(c|)	*
*clefC4	*
*k[b-]	*
*F:ion	*
!LO:TX:a:t=jon. tr. (F.)	!
!LO:TX:a:t=P:1r, 2r, 2f in the source:problem	!
!LO:N:vis=2	!
2ryy	.
{2F	Mit
=1	=1
1c	luſt
1c	trit
1d	ich
1c	an
=2	=2
1c	di-
1B-	-ſen
1A	tanʒ,
2r}	.
{2B-	ich
=3	=3
1c	hoff
1c	mir
1c	werd
1B-	ein
=4	=4
1A	ſchö-
1G	-ner
1F	krantʒ
2r}	.
{2F	von
=5	=5
1F	ei-
1G	-nem
1.A	ſchön
2G	jung-
=6	=6
1F	-fre-
1G	-we-
1A	-lein,
2r}	.
{2c	dar-
=7	=7
1c	-umb
1c	wil
1.c	ich
2B-	ir
=8	=8
1A	ei-
1G	gen
1F/ll}	ſein.
==	==
!!!GTL: Tanz- und Kranzlieder
!!!AGN: Romanze, Ballade, Lied
!! J. Ott 1544 No. 3.
!!!ONB: ESAC (Essen Associative Code) Database: ALTDEU
!!!AMT: simple quadruple
!!!AIN: vox
!!!EED: Helmut Schaffrath
!!!EEV: 1.0
!!!RDF**kern: l = terminal long
!!!AMD: Ionian
!!!URL-scan: https://rosdok.uni-rostock.de/mcrviewer/recordIdentifier/rosdok_ppn738218359/iview2/phys_0439.iview2?x=-495.6391625615763&y=121.8295566488523&scale=0.4629418472063854&rotation=0&layout=singlePageLayout&logicalDiv=log_0012
!!!ENC: Anna Maria Matuszewska
!!!EEV: 2024/12/03
*-	*-
